X:1
T:The American Wake 
C:
B:Terry "Cuz" Teahan "Sliabh Luachra on Parade" 1980
Z:Patrick Cavanagh
M:6/8
L:1/8
R:Jig
K:D
N:
Bc || dfd cec | BAB BAF | EFA BAB | c2B BAF | 
| dfd cec | BAB BAF | EFA BAB | cAA A3 :| 
B || cAA fdf | efe cBA | eAA fAA | fec B2B | 
| cAA fdf | efe cBA | ABc BAB | cAA A3 :|| 

